assets/button-secondary.svg

<?xml version="1.0" encoding="UTF-8"?>
<svg width="142px" height="42px" viewBox="0 0 142 42" version="1.1" xmlns="http://www.w3.org/2000/svg" xmlns:xlink="http://www.w3.org/1999/xlink">
    <title>button-primary</title>
    <g id="Page-1" stroke="none" stroke-width="1" fill="none" fill-rule="evenodd">
        <g id="button-primary" transform="translate(1.000000, 1.210526)" fill-rule="nonzero">
            <path d="M7.30745544,0 L132.692544,0 C136.727362,0 140,2.38661227 140,5.32999732 L140,34.6700031 C140,37.6133881 136.727362,40 132.692544,40 L7.30745544,40 C3.27263779,40 0,37.6133881 0,34.6700031 L0,5.32999732 C0,2.38661227 3.27263779,0 7.30745544,0 L7.30745544,0 Z" id="Path" stroke="#0047DD"></path>
            <g id="Download" transform="translate(14.000000, 12.789474)" fill="#0047DD">
                <path d="M11.2942913,7.22383307 C11.2942913,9.5713261 10.6576028,11.3678294 9.39345472,12.613343 C8.12469213,13.8634865 6.29767441,14.4839289 3.91240157,14.4839289 L-8.8817842e-16,14.4839289 L-8.8817842e-16,0.22302632 L4.33686024,0.22302632 C6.53758583,0.22302632 8.2492618,0.84346878 9.46727363,2.07509159 C10.6852854,3.29745468 11.2942913,5.01524552 11.2942913,7.22383307 Z M9.54109251,7.27939502 C9.54109251,5.41806882 9.07972441,4.01513027 8.1569882,3.07520684 C7.23425197,2.13991447 5.85937441,1.66763723 4.04158464,1.66763723 L1.64247047,1.66763723 L1.64247047,13.0578387 L3.65403543,13.0578387 C5.61023623,13.0578387 7.07738623,12.5716718 8.06471457,11.5947071 C9.04742834,10.6223734 9.54109251,9.18239238 9.54109251,7.27939502 L9.54109251,7.27939502 Z M26.7059754,7.33417849 C26.7059754,9.6214797 26.133879,11.4179818 24.9896861,12.7236885 C23.8454932,14.0340249 22.2583869,14.6868776 20.2283672,14.6868776 C18.1337565,14.6868776 16.523581,14.0479145 15.3932294,12.7607298 C14.2582644,11.4781748 13.6953947,9.66315089 13.6953947,7.31565784 C13.6953947,4.99594638 14.2582644,3.19944306 15.3932294,1.92614789 C16.5374223,0.64359298 18.1522101,2.22044605e-16 20.2468219,2.22044605e-16 C22.2768416,2.22044605e-16 23.8547211,0.65748377 24.9896861,1.96318919 C26.133879,3.25963488 26.7059754,5.05150834 26.7059754,7.33417849 Z M15.4485936,7.33417849 C15.4485936,9.27421717 15.8545975,10.7419786 16.6666054,11.7420938 C17.4786132,12.7329494 18.664329,13.2237461 20.2283672,13.2237461 C21.787792,13.2237461 22.9688943,12.7329494 23.7716743,11.7420938 C24.5698408,10.7419786 24.9712313,9.27421717 24.9712313,7.33417849 C24.9712313,5.42192139 24.5698408,3.97267942 23.7716743,2.98182509 C22.9688943,1.98170984 21.7970187,1.48165222 20.2468219,1.48165222 C18.6689424,1.48165222 17.4786132,1.98170984 16.6666054,2.98182509 C15.8545975,3.98194034 15.4485936,5.43581218 15.4485936,7.33417849 Z M42.1999327,14.4839289 L40.5759169,14.4839289 L37.7154346,4.94579278 C37.5770248,4.51518789 37.4247724,3.97808895 37.2540665,3.33449597 C37.0925874,2.69553405 37.0049272,2.31123022 36.9957004,2.18621551 C36.8572894,3.03816555 36.6358327,3.97808895 36.3313303,5.00135473 L33.5631216,14.4839289 L31.9391059,14.4839289 L28.1743421,0.22302632 L29.9090862,0.22302632 L32.1421079,9.03885703 C32.4604516,10.2751109 32.6865216,11.3909799 32.8249327,12.3910952 C32.9956386,11.2057734 33.2540047,10.0389723 33.6000311,8.89069182 L36.1283283,0.22302632 L37.8815272,0.22302632 L40.5390075,8.98329507 C40.8435098,9.98341032 41.101876,11.1224299 41.3141059,12.3910952 C41.434061,11.4650625 41.669359,10.3445625 42.0153854,9.02033639 L44.2299523,0.22302632 L45.9831512,0.22302632 L42.1999327,14.4839289 Z M59.2379326,14.4839289 L57.3555507,14.4839289 L49.6230211,2.51958726 L49.5492022,2.51958726 C49.6599306,3.92715687 49.7152948,5.2189727 49.7152948,6.3904037 L49.7152948,14.4839289 L48.1835526,14.4839289 L48.1835526,0.22302632 L50.0474798,0.22302632 L57.7430999,12.1503267 L57.8353735,12.1503267 C57.8215322,11.9651202 57.7892373,11.4002408 57.7430999,10.4464267 C57.6923491,9.49724349 57.6738944,8.81660921 57.6877357,8.40915484 L57.6877357,0.22302632 L59.2379326,0.22302632 L59.2379326,14.4839289 Z" id="Shape"></path>
                <polygon id="Path" points="63.111 14.485 63.111 0.223 64.753 0.223 64.753 12.983 70.991 12.983 70.991 14.485"></polygon>
                <path d="M85.6579491,7.33417849 C85.6579491,9.6214797 85.0858527,11.4179818 83.9416597,12.7236885 C82.7974669,14.0340249 81.2103606,14.6868776 79.1803409,14.6868776 C77.0857302,14.6868776 75.4755547,14.0479145 74.3452031,12.7607298 C73.2102381,11.4781748 72.6473684,9.66315089 72.6473684,7.31565784 C72.6473684,4.99594638 73.2102381,3.19944306 74.3452031,1.92614789 C75.489396,0.64359298 77.1041838,2.22044605e-16 79.1987956,2.22044605e-16 C81.2288153,2.22044605e-16 82.8066948,0.65748377 83.9416597,1.96318919 C85.0858527,3.25963488 85.6579491,5.05150834 85.6579491,7.33417849 L85.6579491,7.33417849 Z M74.4005672,7.33417849 C74.4005672,9.27421717 74.8065712,10.7419786 75.6185791,11.7420938 C76.4305869,12.7329494 77.6163027,13.2237461 79.1803409,13.2237461 C80.7397657,13.2237461 81.920868,12.7329494 82.7236479,11.7420938 C83.5218145,10.7419786 83.923205,9.27421717 83.923205,7.33417849 C83.923205,5.42192139 83.5218145,3.97267942 82.7236479,2.98182509 C81.920868,1.98170984 80.7489924,1.48165222 79.1987956,1.48165222 C77.6209161,1.48165222 76.4305869,1.98170984 75.6185791,2.98182509 C74.8065712,3.98194034 74.4005672,5.43581218 74.4005672,7.33417849 L74.4005672,7.33417849 Z M97.7006864,14.4822541 L95.9290328,9.94469414 L90.2634324,9.94469414 L88.5286884,14.4822541 L86.8677632,14.4822541 L92.4595447,0.16578947 L93.843649,0.16578947 L99.398521,14.4822541 L97.7006864,14.4822541 Z M95.4307553,8.46304192 L93.7882848,4.03660591 C93.5668281,3.48098633 93.3453714,2.79572216 93.1239147,1.98081345 C92.9762769,2.61051564 92.773275,3.29577979 92.5149088,4.03660591 L90.8539836,8.46304192 L95.4307553,8.46304192 Z M112.62916,7.22383307 C112.62916,9.5713261 111.992471,11.3678294 110.728323,12.613343 C109.459561,13.8634865 107.632543,14.4839289 105.24727,14.4839289 L101.334868,14.4839289 L101.334868,0.22302632 L105.671729,0.22302632 C107.872454,0.22302632 109.58413,0.84346878 110.802142,2.07509159 C112.020154,3.29745468 112.62916,5.01524552 112.62916,7.22383307 Z M110.875961,7.27939502 C110.875961,5.41806882 110.414593,4.01513027 109.491857,3.07520684 C108.56912,2.13991447 107.194243,1.66763723 105.376453,1.66763723 L102.977339,1.66763723 L102.977339,13.0578387 L104.988904,13.0578387 C106.945105,13.0578387 108.412255,12.5716718 109.399583,11.5947071 C110.382297,10.6223734 110.875961,9.18239238 110.875961,7.27939502 L110.875961,7.27939502 Z" id="Shape"></path>
            </g>
        </g>
    </g>
</svg>

<svg width="142" height="42" xmlns="http://www.w3.org/2000/svg"><g transform="translate(1 1.21)" fill="none"><path d="M7.307 0h125.386C136.727 0 140 2.387 140 5.33v29.34c0 2.943-3.273 5.33-7.307 5.33H7.307C3.273 40 0 37.613 0 34.67V5.33C0 2.387 3.273 0 7.307 0z" stroke="#0047DD"/><g transform="translate(14 12.79)" fill="#0047DD"><path d="M11.294 7.224c0 2.347-.636 4.144-1.9 5.39-1.27 1.25-3.096 1.87-5.482 1.87H0V.223h4.337c2.2 0 3.912.62 5.13 1.852 1.218 1.222 1.827 2.94 1.827 5.149zm-1.753.055c0-1.86-.461-3.264-1.384-4.204-.923-.935-2.298-1.407-4.115-1.407h-2.4v11.39h2.012c1.956 0 3.423-.486 4.41-1.463.983-.973 1.477-2.413 1.477-4.316zm17.165.055c0 2.287-.572 4.084-1.716 5.39-1.145 1.31-2.732 1.963-4.762 1.963-2.094 0-3.704-.64-4.835-1.926-1.135-1.283-1.698-3.098-1.698-5.445 0-2.32.563-4.117 1.698-5.39C16.537.644 18.153 0 20.247 0c2.03 0 3.608.657 4.743 1.963 1.144 1.297 1.716 3.089 1.716 5.371zm-11.257 0c0 1.94.406 3.408 1.218 4.408.812.99 1.997 1.482 3.561 1.482 1.56 0 2.74-.491 3.544-1.482.798-1 1.2-2.468 1.2-4.408 0-1.912-.402-3.361-1.2-4.352-.803-1-1.975-1.5-3.525-1.5-1.578 0-2.768.5-3.58 1.5-.812 1-1.218 2.454-1.218 4.352zm26.75 7.15h-1.623l-2.86-9.538c-.139-.43-.291-.968-.462-1.612-.161-.638-.25-1.023-.258-1.148-.139.852-.36 1.792-.665 2.815l-2.768 9.483H31.94L28.174.223h1.735l2.233 8.816a30.12 30.12 0 0 1 .683 3.352c.17-1.185.429-2.352.775-3.5L36.128.223h1.754l2.657 8.76c.305 1 .563 2.14.775 3.408.12-.926.355-2.046.701-3.37L44.23.222h1.753L42.2 14.483zm17.039 0h-1.882L49.623 2.52h-.074c.11 1.407.166 2.699.166 3.87v8.094h-1.531V.223h1.863l7.696 11.927h.092c-.013-.185-.046-.75-.092-1.704-.05-.949-.07-1.63-.055-2.037V.223h1.55v14.26z"/><path d="M63.111 14.485L63.111 0.223 64.753 0.223 64.753 12.983 70.991 12.983 70.991 14.485z"/><path d="M85.658 7.334c0 2.287-.572 4.084-1.716 5.39-1.145 1.31-2.732 1.963-4.762 1.963-2.094 0-3.704-.64-4.835-1.926-1.135-1.283-1.698-3.098-1.698-5.445 0-2.32.563-4.117 1.698-5.39C75.49.644 77.105 0 79.2 0c2.03 0 3.608.657 4.743 1.963 1.144 1.297 1.716 3.089 1.716 5.371zm-11.257 0c0 1.94.406 3.408 1.218 4.408.812.99 1.997 1.482 3.561 1.482 1.56 0 2.74-.491 3.544-1.482.798-1 1.2-2.468 1.2-4.408 0-1.912-.402-3.361-1.2-4.352-.803-1-1.975-1.5-3.525-1.5-1.578 0-2.768.5-3.58 1.5-.812 1-1.218 2.454-1.218 4.352zm23.3 7.148l-1.772-4.537h-5.666l-1.734 4.537h-1.661L92.46.166h1.384l5.555 14.316H97.7zm-2.27-6.019l-1.643-4.426a19.385 19.385 0 0 1-.664-2.056c-.148.63-.35 1.315-.61 2.056l-1.66 4.426h4.577zm17.198-1.24c0 2.348-.637 4.145-1.9 5.39-1.27 1.25-3.096 1.87-5.482 1.87h-3.912V.224h4.337c2.2 0 3.912.62 5.13 1.852 1.218 1.222 1.827 2.94 1.827 5.149zm-1.753.056c0-1.86-.461-3.264-1.384-4.204-.923-.935-2.298-1.407-4.116-1.407h-2.399v11.39h2.012c1.956 0 3.423-.486 4.41-1.463.983-.973 1.477-2.413 1.477-4.316z"/></g></g></svg>
